images/prvd.svg

<svg height="250" viewBox="0 0 250 250" width="250" xmlns="http://www.w3.org/2000/svg" xmlns:xlink="http://www.w3.org/1999/xlink"><linearGradient id="a"><stop offset="0" stop-color="#4eceff"/><stop offset=".1" stop-color="#4eceff"/><stop offset=".2" stop-color="#4eceff"/><stop offset=".3" stop-color="#4eceff"/><stop offset=".4" stop-color="#4dceff"/><stop offset=".5" stop-color="#48cafc"/><stop offset=".6" stop-color="#40c6f9"/><stop offset=".7" stop-color="#38c2f6"/><stop offset=".8" stop-color="#2fbdf2"/><stop offset=".9" stop-color="#25b7ef"/><stop offset="1" stop-color="#21b5ed"/></linearGradient><linearGradient id="b" gradientUnits="userSpaceOnUse" x1="13.4086" x2="86.284798" xlink:href="#a" y1="196.826996" y2="166.746994"/><linearGradient id="c" gradientUnits="userSpaceOnUse" x1="123.213997" x2="69.1744" xlink:href="#a" y1="239.888" y2="143.451996"/><linearGradient id="d" gradientUnits="userSpaceOnUse" x1="215.306" x2="105.709999" xlink:href="#a" y1="166.059998" y2="185.817001"/><linearGradient id="e" gradientUnits="userSpaceOnUse" x1="197.591003" x2="124.714996" xlink:href="#a" y1="49.172501" y2="79.253502"/><linearGradient id="f" gradientUnits="userSpaceOnUse" x1="87.785599" x2="141.826004" xlink:href="#a" y1="6.11225" y2="102.547997"/><linearGradient id="g" gradientUnits="userSpaceOnUse" x1="-4.30584" x2="105.290001" xlink:href="#a" y1="79.939697" y2="60.182499"/><g stroke-width="2"><g stroke="#fff"><path d="m50.963094 91.427437v120.997407l-49.964141-28.924219v-63.148969zm0 0" fill="url(#b)" transform="scale(1.184834 1.01626)"/><path d="m50.963094 154.572562 104.501047 60.500625-49.964141 28.928063-54.536906-31.576406zm0 0" fill="url(#c)" transform="scale(1.184834 1.01626)"/><path d="m105.5 186.148969 104.501047-60.500625v57.852281l-54.536906 31.572562zm0 0" fill="url(#d)" transform="scale(1.184834 1.01626)"/><path d="m160.036906 154.572562v-120.997406l49.964141 28.924219v63.148969zm0 0" fill="url(#e)" transform="scale(1.184834 1.01626)"/></g><path d="m160.036906 91.427437-104.501047-60.500625 49.964141-28.928062 54.536906 31.576406zm0 0" fill="url(#f)" stroke="#fefefe" transform="scale(1.184834 1.01626)"/><path d="m105.5 59.851031-104.501047 60.500625v-57.852281l54.536906-31.572563zm0 0" fill="url(#g)" stroke="#fff" transform="scale(1.184834 1.01626)"/></g></svg>

<svg xmlns="http://www.w3.org/2000/svg" xmlns:xlink="http://www.w3.org/1999/xlink" width="250px" height="250px" viewBox="0 0 250 250" version="1.1">
<defs>
<linearGradient id="linear0" gradientUnits="userSpaceOnUse" x1="13.4086" y1="196.826996" x2="86.284798" y2="166.746994" >
<stop offset="0" style="stop-color:rgb(30.588236%,80.784315%,100%);stop-opacity:1;"/>
<stop offset="0.1" style="stop-color:rgb(30.588236%,80.784315%,100%);stop-opacity:1;"/>
<stop offset="0.2" style="stop-color:rgb(30.588236%,80.784315%,100%);stop-opacity:1;"/>
<stop offset="0.3" style="stop-color:rgb(30.588236%,80.784315%,100%);stop-opacity:1;"/>
<stop offset="0.4" style="stop-color:rgb(30.19608%,80.784315%,100%);stop-opacity:1;"/>
<stop offset="0.5" style="stop-color:rgb(28.235295%,79.215688%,98.823529%);stop-opacity:1;"/>
<stop offset="0.6" style="stop-color:rgb(25.098041%,77.64706%,97.647059%);stop-opacity:1;"/>
<stop offset="0.7" style="stop-color:rgb(21.960784%,76.078433%,96.470588%);stop-opacity:1;"/>
<stop offset="0.8" style="stop-color:rgb(18.431373%,74.117649%,94.901961%);stop-opacity:1;"/>
<stop offset="0.9" style="stop-color:rgb(14.509805%,71.764708%,93.725491%);stop-opacity:1;"/>
<stop offset="1" style="stop-color:rgb(12.941177%,70.980394%,92.941177%);stop-opacity:1;"/>
</linearGradient>
<linearGradient id="linear1" gradientUnits="userSpaceOnUse" x1="123.213997" y1="239.888" x2="69.1744" y2="143.451996" >
<stop offset="0" style="stop-color:rgb(30.588236%,80.784315%,100%);stop-opacity:1;"/>
<stop offset="0.1" style="stop-color:rgb(30.588236%,80.784315%,100%);stop-opacity:1;"/>
<stop offset="0.2" style="stop-color:rgb(30.588236%,80.784315%,100%);stop-opacity:1;"/>
<stop offset="0.3" style="stop-color:rgb(30.588236%,80.784315%,100%);stop-opacity:1;"/>
<stop offset="0.4" style="stop-color:rgb(30.19608%,80.784315%,100%);stop-opacity:1;"/>
<stop offset="0.5" style="stop-color:rgb(28.235295%,79.215688%,98.823529%);stop-opacity:1;"/>
<stop offset="0.6" style="stop-color:rgb(25.098041%,77.64706%,97.647059%);stop-opacity:1;"/>
<stop offset="0.7" style="stop-color:rgb(21.960784%,76.078433%,96.470588%);stop-opacity:1;"/>
<stop offset="0.8" style="stop-color:rgb(18.431373%,74.117649%,94.901961%);stop-opacity:1;"/>
<stop offset="0.9" style="stop-color:rgb(14.509805%,71.764708%,93.725491%);stop-opacity:1;"/>
<stop offset="1" style="stop-color:rgb(12.941177%,70.980394%,92.941177%);stop-opacity:1;"/>
</linearGradient>
<linearGradient id="linear2" gradientUnits="userSpaceOnUse" x1="215.306" y1="166.059998" x2="105.709999" y2="185.817001" >
<stop offset="0" style="stop-color:rgb(30.588236%,80.784315%,100%);stop-opacity:1;"/>
<stop offset="0.1" style="stop-color:rgb(30.588236%,80.784315%,100%);stop-opacity:1;"/>
<stop offset="0.2" style="stop-color:rgb(30.588236%,80.784315%,100%);stop-opacity:1;"/>
<stop offset="0.3" style="stop-color:rgb(30.588236%,80.784315%,100%);stop-opacity:1;"/>
<stop offset="0.4" style="stop-color:rgb(30.19608%,80.784315%,100%);stop-opacity:1;"/>
<stop offset="0.5" style="stop-color:rgb(28.235295%,79.215688%,98.823529%);stop-opacity:1;"/>
<stop offset="0.6" style="stop-color:rgb(25.098041%,77.64706%,97.647059%);stop-opacity:1;"/>
<stop offset="0.7" style="stop-color:rgb(21.960784%,76.078433%,96.470588%);stop-opacity:1;"/>
<stop offset="0.8" style="stop-color:rgb(18.431373%,74.117649%,94.901961%);stop-opacity:1;"/>
<stop offset="0.9" style="stop-color:rgb(14.509805%,71.764708%,93.725491%);stop-opacity:1;"/>
<stop offset="1" style="stop-color:rgb(12.941177%,70.980394%,92.941177%);stop-opacity:1;"/>
</linearGradient>
<linearGradient id="linear3" gradientUnits="userSpaceOnUse" x1="197.591003" y1="49.172501" x2="124.714996" y2="79.253502" >
<stop offset="0" style="stop-color:rgb(30.588236%,80.784315%,100%);stop-opacity:1;"/>
<stop offset="0.1" style="stop-color:rgb(30.588236%,80.784315%,100%);stop-opacity:1;"/>
<stop offset="0.2" style="stop-color:rgb(30.588236%,80.784315%,100%);stop-opacity:1;"/>
<stop offset="0.3" style="stop-color:rgb(30.588236%,80.784315%,100%);stop-opacity:1;"/>
<stop offset="0.4" style="stop-color:rgb(30.19608%,80.784315%,100%);stop-opacity:1;"/>
<stop offset="0.5" style="stop-color:rgb(28.235295%,79.215688%,98.823529%);stop-opacity:1;"/>
<stop offset="0.6" style="stop-color:rgb(25.098041%,77.64706%,97.647059%);stop-opacity:1;"/>
<stop offset="0.7" style="stop-color:rgb(21.960784%,76.078433%,96.470588%);stop-opacity:1;"/>
<stop offset="0.8" style="stop-color:rgb(18.431373%,74.117649%,94.901961%);stop-opacity:1;"/>
<stop offset="0.9" style="stop-color:rgb(14.509805%,71.764708%,93.725491%);stop-opacity:1;"/>
<stop offset="1" style="stop-color:rgb(12.941177%,70.980394%,92.941177%);stop-opacity:1;"/>
</linearGradient>
<linearGradient id="linear4" gradientUnits="userSpaceOnUse" x1="87.785599" y1="6.11225" x2="141.826004" y2="102.547997" >
<stop offset="0" style="stop-color:rgb(30.588236%,80.784315%,100%);stop-opacity:1;"/>
<stop offset="0.1" style="stop-color:rgb(30.588236%,80.784315%,100%);stop-opacity:1;"/>
<stop offset="0.2" style="stop-color:rgb(30.588236%,80.784315%,100%);stop-opacity:1;"/>
<stop offset="0.3" style="stop-color:rgb(30.588236%,80.784315%,100%);stop-opacity:1;"/>
<stop offset="0.4" style="stop-color:rgb(30.19608%,80.784315%,100%);stop-opacity:1;"/>
<stop offset="0.5" style="stop-color:rgb(28.235295%,79.215688%,98.823529%);stop-opacity:1;"/>
<stop offset="0.6" style="stop-color:rgb(25.098041%,77.64706%,97.647059%);stop-opacity:1;"/>
<stop offset="0.7" style="stop-color:rgb(21.960784%,76.078433%,96.470588%);stop-opacity:1;"/>
<stop offset="0.8" style="stop-color:rgb(18.431373%,74.117649%,94.901961%);stop-opacity:1;"/>
<stop offset="0.9" style="stop-color:rgb(14.509805%,71.764708%,93.725491%);stop-opacity:1;"/>
<stop offset="1" style="stop-color:rgb(12.941177%,70.980394%,92.941177%);stop-opacity:1;"/>
</linearGradient>
<linearGradient id="linear5" gradientUnits="userSpaceOnUse" x1="-4.30584" y1="79.939697" x2="105.290001" y2="60.182499" >
<stop offset="0" style="stop-color:rgb(30.588236%,80.784315%,100%);stop-opacity:1;"/>
<stop offset="0.1" style="stop-color:rgb(30.588236%,80.784315%,100%);stop-opacity:1;"/>
<stop offset="0.2" style="stop-color:rgb(30.588236%,80.784315%,100%);stop-opacity:1;"/>
<stop offset="0.3" style="stop-color:rgb(30.588236%,80.784315%,100%);stop-opacity:1;"/>
<stop offset="0.4" style="stop-color:rgb(30.19608%,80.784315%,100%);stop-opacity:1;"/>
<stop offset="0.5" style="stop-color:rgb(28.235295%,79.215688%,98.823529%);stop-opacity:1;"/>
<stop offset="0.6" style="stop-color:rgb(25.098041%,77.64706%,97.647059%);stop-opacity:1;"/>
<stop offset="0.7" style="stop-color:rgb(21.960784%,76.078433%,96.470588%);stop-opacity:1;"/>
<stop offset="0.8" style="stop-color:rgb(18.431373%,74.117649%,94.901961%);stop-opacity:1;"/>
<stop offset="0.9" style="stop-color:rgb(14.509805%,71.764708%,93.725491%);stop-opacity:1;"/>
<stop offset="1" style="stop-color:rgb(12.941177%,70.980394%,92.941177%);stop-opacity:1;"/>
</linearGradient>
</defs>
<g id="surface1">
<path style="fill-rule:nonzero;fill:url(#linear0);stroke-width:2;stroke-linecap:butt;stroke-linejoin:miter;stroke:rgb(100%,100%,100%);stroke-opacity:1;stroke-miterlimit:4;" d="M 50.963094 91.427437 L 50.963094 212.424844 L 0.998953 183.500625 L 0.998953 120.351656 Z M 50.963094 91.427437 " transform="matrix(1.184834,0,0,1.01626,0,0)"/>
<path style="fill-rule:nonzero;fill:url(#linear1);stroke-width:2;stroke-linecap:butt;stroke-linejoin:miter;stroke:rgb(100%,100%,100%);stroke-opacity:1;stroke-miterlimit:4;" d="M 50.963094 154.572562 L 155.464141 215.073187 L 105.5 244.00125 L 50.963094 212.424844 Z M 50.963094 154.572562 " transform="matrix(1.184834,0,0,1.01626,0,0)"/>
<path style="fill-rule:nonzero;fill:url(#linear2);stroke-width:2;stroke-linecap:butt;stroke-linejoin:miter;stroke:rgb(100%,100%,100%);stroke-opacity:1;stroke-miterlimit:4;" d="M 105.5 186.148969 L 210.001047 125.648344 L 210.001047 183.500625 L 155.464141 215.073187 Z M 105.5 186.148969 " transform="matrix(1.184834,0,0,1.01626,0,0)"/>
<path style="fill-rule:nonzero;fill:url(#linear3);stroke-width:2;stroke-linecap:butt;stroke-linejoin:miter;stroke:rgb(100%,100%,100%);stroke-opacity:1;stroke-miterlimit:4;" d="M 160.036906 154.572562 L 160.036906 33.575156 L 210.001047 62.499375 L 210.001047 125.648344 Z M 160.036906 154.572562 " transform="matrix(1.184834,0,0,1.01626,0,0)"/>
<path style="fill-rule:nonzero;fill:url(#linear4);stroke-width:2;stroke-linecap:butt;stroke-linejoin:miter;stroke:rgb(99.607843%,99.607843%,99.607843%);stroke-opacity:1;stroke-miterlimit:4;" d="M 160.036906 91.427437 L 55.535859 30.926812 L 105.5 1.99875 L 160.036906 33.575156 Z M 160.036906 91.427437 " transform="matrix(1.184834,0,0,1.01626,0,0)"/>
<path style="fill-rule:nonzero;fill:url(#linear5);stroke-width:2;stroke-linecap:butt;stroke-linejoin:miter;stroke:rgb(100%,100%,100%);stroke-opacity:1;stroke-miterlimit:4;" d="M 105.5 59.851031 L 0.998953 120.351656 L 0.998953 62.499375 L 55.535859 30.926812 Z M 105.5 59.851031 " transform="matrix(1.184834,0,0,1.01626,0,0)"/>
</g>
</svg>
